X: 1
T: Itsy Bitsy Spider
M: 6/8
L: 1/8
N: Children's song, nursery rhyme
K: F
C | F2F F2G | A3 A2A | G2F G2A | F3 z2F |
w: An it-sy bit-sy spi-der ran up the wa-ter-spout A-
  | A3  A2B | c3 c3  | B2A B2c | A3 z3  |
w: -long came the rain and washed the spi-der out.
  | F3  F2G | A3 A3  | G2F G2A | F3 C2C |
w: Out came the sun and dried up all the rain, and the
  | F2F F2G | A3 A2A | G2F G2A | F3 z2 |]
w: it-sy bit-sy spi-der ran up the spout a-gain.
